public/icons/fantom.svg

<svg width="100" height="27" viewBox="0 0 100 27" fill="none" xmlns="http://www.w3.org/2000/svg">
<g clip-path="url(#clip0_88_1586)">
<path d="M9.11958 0.369506C9.74698 0.0373538 10.7139 0.0373538 11.3413 0.369506L17.7777 3.75008C18.1541 3.94937 18.3682 4.24461 18.4051 4.55462H18.4125V21.5608C18.4051 21.893 18.191 22.2251 17.7777 22.4466L11.3413 25.8271C10.7139 26.1593 9.74698 26.1593 9.11958 25.8271L2.68321 22.4466C2.26986 22.2325 2.07795 21.893 2.06319 21.5608C2.06319 21.5313 2.06319 21.5018 2.06319 21.4796V4.66534C2.06319 4.65058 2.06319 4.62844 2.06319 4.61367V4.562C2.09272 4.252 2.29201 3.96413 2.67583 3.75746L9.1122 0.376887L9.11958 0.369506ZM17.4012 14.0468L11.3413 17.2281C10.7139 17.5602 9.74698 17.5602 9.11958 17.2281L3.07441 14.0542V21.5313L9.11958 24.6904C9.45911 24.875 9.81341 25.0521 10.1603 25.0742H10.2268C10.5884 25.0742 10.9353 24.8897 11.297 24.7199L17.4012 21.5018V14.0468ZM1.01507 21.1991C1.01507 21.8487 1.08888 22.2768 1.24388 22.5794C1.36936 22.8304 1.55389 23.0223 1.90081 23.2511L1.92295 23.2659C1.99676 23.3175 2.07795 23.3692 2.18129 23.4282L2.29939 23.5021L2.66845 23.7235L2.14438 24.5871L1.73842 24.3435L1.67199 24.2992C1.55389 24.2254 1.45794 24.1664 1.36198 24.0999C0.380288 23.443 0.0186116 22.727 0.0112305 21.2434V21.1991H1.02245H1.01507ZM9.72483 9.49262C9.68055 9.50738 9.63626 9.52952 9.59197 9.55167L3.1556 12.9322C3.14822 12.9322 3.14084 12.9396 3.13346 12.9396H3.12608L3.13346 12.947L3.14822 12.9544L9.58459 16.335C9.6215 16.3571 9.66578 16.3719 9.71745 16.394V9.48524L9.72483 9.49262ZM10.7361 9.49262V16.4014C10.7803 16.3866 10.8246 16.3645 10.8689 16.3423L17.3053 12.9618C17.3127 12.9618 17.32 12.9544 17.3274 12.9544H17.3348L17.3274 12.947L17.3127 12.9396L10.8763 9.55905C10.8394 9.53691 10.7951 9.52214 10.7434 9.5L10.7361 9.49262ZM17.3939 5.77251L11.6144 8.80617L17.3939 11.8398V5.77251ZM3.06703 5.7799V11.8324L8.83171 8.80617L3.06703 5.7799ZM10.8615 1.27001C10.5294 1.09286 9.92412 1.09286 9.58459 1.27001L3.14822 4.65058C3.14084 4.65058 3.13346 4.65796 3.12608 4.65796H3.1187L3.12608 4.66534L3.14084 4.67272L9.57721 8.05329C9.90936 8.23044 10.5146 8.23044 10.8541 8.05329L17.2905 4.67272C17.2979 4.67272 17.3053 4.66534 17.3127 4.66534H17.32L17.3127 4.65796L17.2979 4.65058L10.8615 1.27001ZM18.346 1.63907L18.752 1.88264L18.8184 1.92693C18.9365 2.00074 19.0325 2.05979 19.1284 2.12622C20.1101 2.78315 20.4718 3.49912 20.4792 4.98273V5.02702H19.468C19.468 4.37748 19.3941 3.94937 19.2391 3.64674C19.1137 3.39578 18.9291 3.20387 18.5822 2.97506L18.5601 2.96029C18.4863 2.90862 18.4051 2.85696 18.3017 2.79791L18.1836 2.7241L17.8146 2.50266L18.3386 1.63907H18.346Z" fill="white"/>
<path d="M30.783 20.8523V11.3675H33.4107V9.63292H30.783V8.3855C30.783 6.9757 31.403 6.26711 32.6357 6.26711C32.99 6.26711 33.3738 6.32616 33.7724 6.44426V4.59897C33.2852 4.45134 32.739 4.37753 32.1485 4.37753C31.0044 4.37753 30.1187 4.7023 29.4839 5.35923C28.8492 6.00877 28.5391 6.96094 28.5391 8.20835V9.63292H26.3765V11.3675H28.5391V20.8523H30.7904H30.783ZM39.9209 21.0073C40.7845 21.0073 41.5374 20.8301 42.1869 20.4758C42.8364 20.1215 43.3236 19.6049 43.6484 18.9406V20.8523H45.8775V9.63292H43.6484V11.4561C43.3088 10.7918 42.8143 10.2751 42.1795 9.90602C41.5374 9.54434 40.7919 9.35982 39.9283 9.35982C38.9613 9.35982 38.0977 9.60339 37.3449 10.0979C36.5846 10.5851 35.9941 11.2789 35.5734 12.172C35.1527 13.0652 34.9386 14.0838 34.9386 15.2426C34.9386 16.4014 35.1453 17.4127 35.566 18.2836C35.9793 19.1546 36.5625 19.8263 37.3153 20.2987C38.0682 20.7711 38.9392 21.0147 39.9356 21.0147L39.9209 21.0073ZM40.4523 19.2284C39.4263 19.2284 38.6292 18.8815 38.0535 18.1803C37.4777 17.4791 37.1972 16.5048 37.1972 15.2426C37.1972 13.9657 37.4851 12.9692 38.0535 12.2458C38.6218 11.5225 39.419 11.1682 40.4302 11.1682C41.4562 11.1682 42.246 11.5151 42.8069 12.2163C43.3679 12.9175 43.641 13.9066 43.641 15.1983C43.641 16.4753 43.3605 17.4643 42.8069 18.1729C42.2533 18.8815 41.4635 19.2284 40.4523 19.2284ZM51.3986 20.8523V14.4602C51.3986 13.4637 51.6864 12.674 52.2548 12.0761C52.8305 11.4856 53.5908 11.183 54.543 11.183C55.377 11.183 55.9823 11.4044 56.3587 11.8473C56.7352 12.2901 56.9271 13.0061 56.9271 13.9878V20.8449H59.1783V13.8549C59.1783 10.8582 57.835 9.35982 55.1408 9.35982C54.2772 9.35982 53.5096 9.55172 52.8305 9.92816C52.1515 10.3046 51.6348 10.8508 51.2805 11.5668L51.0812 9.63292H48.9849C49.103 10.5703 49.1621 11.6184 49.1621 12.7921V20.8523H51.3912H51.3986ZM66.7145 21.0073C67.3419 21.0073 67.8955 20.9261 68.39 20.7637V18.9406C67.9914 19.0587 67.5928 19.1177 67.209 19.1177C66.6111 19.1177 66.1535 18.9553 65.814 18.6379C65.4818 18.3205 65.3121 17.7743 65.3121 16.9993V11.3675H68.4121V9.63292H65.3121V6.04567L63.0608 6.82808V9.63292H60.876V11.3675H63.0608V17.1765C63.0608 18.4239 63.3782 19.376 64.0204 20.0256C64.6625 20.6751 65.5556 21.0073 66.7145 21.0073ZM75.3209 21.0073C76.4059 21.0073 77.3655 20.7711 78.1996 20.2913C79.0336 19.8189 79.6758 19.1398 80.126 18.2689C80.5763 17.3905 80.8051 16.3719 80.8051 15.1983C80.8051 14.0247 80.5763 12.9987 80.126 12.113C79.6758 11.2272 79.0336 10.5482 78.1996 10.0758C77.3655 9.60339 76.4059 9.35982 75.3209 9.35982C74.2211 9.35982 73.2542 9.59601 72.4201 10.0758C71.586 10.5482 70.9439 11.2272 70.4936 12.113C70.0434 12.9987 69.8146 14.0247 69.8146 15.1983C69.8146 16.3719 70.0434 17.3979 70.4936 18.2689C70.9439 19.1472 71.586 19.8189 72.4201 20.2913C73.2542 20.7637 74.2211 21.0073 75.3209 21.0073ZM75.2988 19.2284C74.2728 19.2284 73.483 18.8889 72.922 18.2024C72.3685 17.516 72.088 16.5195 72.088 15.1983C72.088 13.9066 72.3685 12.9102 72.9368 12.2163C73.4978 11.5151 74.2949 11.1682 75.3209 11.1682C76.3321 11.1682 77.1145 11.5151 77.6755 12.2163C78.2365 12.9175 78.5096 13.9066 78.5096 15.1983C78.5096 16.5195 78.2365 17.5234 77.6829 18.2024C77.1367 18.8889 76.3395 19.2284 75.2988 19.2284ZM85.6619 20.8523V14.5045C85.6619 13.4785 85.9129 12.674 86.4222 12.0761C86.9241 11.4856 87.6105 11.183 88.4741 11.183C89.2196 11.183 89.7585 11.4044 90.0906 11.8473C90.4228 12.2901 90.5925 12.9987 90.5925 13.9657V20.8449H92.8438V14.4971C92.8438 13.4711 93.0947 12.6666 93.5893 12.0687C94.0838 11.4782 94.7703 11.1756 95.6265 11.1756C96.372 11.1756 96.9108 11.397 97.2429 11.8399C97.5751 12.2828 97.7449 12.9913 97.7449 13.9583V20.8375H99.9961V13.8476C99.9961 10.8508 98.7487 9.35243 96.2539 9.35243C95.4198 9.35243 94.6743 9.54434 94.0174 9.92816C93.3531 10.312 92.8512 10.8434 92.5116 11.5077C91.9802 10.0684 90.8435 9.34505 89.1015 9.34505C88.2822 9.34505 87.5736 9.52958 86.961 9.89864C86.3484 10.2677 85.8833 10.7991 85.5586 11.4782L85.3593 9.61077H83.263C83.3811 10.5482 83.4402 11.5963 83.4402 12.7699V20.8301H85.6693L85.6619 20.8523Z" fill="white"/>
</g>
<defs>
<clipPath id="clip0_88_1586">
<rect width="100" height="25.9374" fill="white" transform="translate(0 0.133362)"/>
</clipPath>
</defs>
</svg>

<svg width="100" height="27" fill="none" xmlns="http://www.w3.org/2000/svg"><g clip-path="url(#a)" fill="#fff"><path d="M9.12.37c.627-.333 1.594-.333 2.221 0l6.437 3.38c.376.2.59.495.627.805h.008V21.56c-.008.332-.222.664-.635.886l-6.437 3.38c-.627.332-1.594.332-2.221 0l-6.437-3.38c-.413-.214-.605-.554-.62-.886V4.562c.03-.31.229-.598.613-.805L9.112.377 9.12.37ZM17.4 14.047l-6.06 3.181c-.627.332-1.594.332-2.221 0l-6.046-3.174v7.477l6.046 3.16c.34.184.693.361 1.04.383h.067c.361 0 .708-.184 1.07-.354l6.104-3.218v-7.455ZM1.015 21.199c0 .65.074 1.078.229 1.38.125.251.31.443.657.672l.022.015c.074.052.155.103.258.162l.118.074.37.222-.525.863-.406-.244-.066-.044c-.118-.074-.214-.133-.31-.2-.982-.656-1.343-1.372-1.35-2.856V21.2h1.01-.007Zm8.71-11.706a1.045 1.045 0 0 0-.133.059l-6.436 3.38c-.008 0-.015.008-.023.008h-.007l.007.007.015.007 6.437 3.381c.036.022.08.037.132.059V9.485l.008.008Zm1.011 0V16.4c.044-.014.089-.037.133-.059l6.436-3.38c.008 0 .015-.008.022-.008h.008l-.008-.007-.014-.007-6.437-3.381c-.037-.022-.08-.037-.133-.059l-.007-.007Zm6.658-3.72-5.78 3.033 5.78 3.034V5.773ZM3.067 5.78v6.052l5.765-3.026L3.067 5.78Zm7.794-4.51c-.332-.177-.937-.177-1.276 0L3.148 4.65c-.007 0-.015.008-.022.008H3.12l.007.007.015.008 6.436 3.38c.332.177.938.177 1.277 0l6.437-3.38c.007 0 .014-.008.022-.008h.007l-.007-.007-.015-.007-6.436-3.381Zm7.485.37.406.243.066.044c.118.074.214.133.31.2.982.656 1.344 1.372 1.351 2.856v.044h-1.011c0-.65-.074-1.078-.229-1.38-.125-.251-.31-.443-.657-.672l-.022-.015a3.253 3.253 0 0 0-.258-.162l-.118-.074-.37-.221.525-.864h.007ZM30.783 20.852v-9.485h2.628V9.633h-2.628V8.386c0-1.41.62-2.119 1.853-2.119.354 0 .738.06 1.136.177V4.6a5.61 5.61 0 0 0-1.623-.221c-1.145 0-2.03.324-2.665.981-.635.65-.945 1.602-.945 2.85v1.424h-2.163v1.735h2.163v9.484h2.251-.007Zm9.138.155c.864 0 1.616-.177 2.266-.531a3.42 3.42 0 0 0 1.461-1.535v1.911h2.23V9.632h-2.23v1.824a3.72 3.72 0 0 0-1.469-1.55c-.642-.362-1.387-.546-2.25-.546-.968 0-1.831.243-2.584.738-.76.487-1.35 1.18-1.772 2.074-.42.893-.634 1.912-.634 3.07 0 1.16.206 2.17.627 3.042.413.87.996 1.542 1.75 2.015.752.472 1.623.716 2.62.716l-.015-.008Zm.531-1.779c-1.026 0-1.823-.347-2.398-1.048-.576-.7-.857-1.675-.857-2.937 0-1.277.288-2.274.856-2.997.569-.723 1.366-1.078 2.377-1.078 1.026 0 1.816.347 2.377 1.048.56.702.834 1.69.834 2.982 0 1.277-.28 2.266-.834 2.975-.554.709-1.343 1.055-2.355 1.055ZM51.4 20.852V14.46c0-.996.287-1.786.856-2.384.575-.59 1.336-.893 2.288-.893.834 0 1.44.221 1.816.664.376.443.568 1.16.568 2.14v6.858h2.251v-6.99c0-2.997-1.343-4.495-4.037-4.495-.864 0-1.631.192-2.31.568a3.702 3.702 0 0 0-1.55 1.639l-.2-1.934h-2.096c.118.937.177 1.985.177 3.16v8.06H51.4Zm15.316.155c.627 0 1.18-.08 1.675-.243V18.94a4.168 4.168 0 0 1-1.181.177c-.598 0-1.056-.163-1.395-.48-.332-.318-.502-.864-.502-1.639v-5.631h3.1V9.633h-3.1V6.046l-2.251.782v2.805h-2.185v1.735h2.185v5.809c0 1.247.317 2.199.96 2.849.641.65 1.535.981 2.694.981Zm8.606 0c1.085 0 2.044-.236 2.879-.716a4.808 4.808 0 0 0 1.926-2.022c.45-.878.68-1.897.68-3.07 0-1.174-.23-2.2-.68-3.086a4.76 4.76 0 0 0-1.926-2.037c-.835-.473-1.794-.716-2.88-.716-1.099 0-2.066.236-2.9.716a4.76 4.76 0 0 0-1.926 2.037c-.45.886-.68 1.912-.68 3.085 0 1.174.23 2.2.68 3.07a4.766 4.766 0 0 0 1.926 2.023c.834.473 1.801.716 2.9.716Zm-.022-1.779c-1.026 0-1.816-.34-2.377-1.026-.553-.686-.834-1.683-.834-3.004 0-1.291.28-2.288.849-2.982.56-.7 1.358-1.048 2.384-1.048 1.011 0 1.794.347 2.355 1.048.56.702.834 1.69.834 2.982 0 1.322-.273 2.325-.827 3.004-.546.687-1.344 1.026-2.384 1.026Zm10.363 1.624v-6.348c0-1.025.25-1.83.76-2.428.502-.59 1.189-.893 2.052-.893.746 0 1.284.221 1.617.664.332.443.502 1.152.502 2.119v6.879h2.25v-6.348c0-1.026.252-1.83.746-2.428.495-.59 1.181-.893 2.037-.893.746 0 1.285.221 1.617.664.332.443.502 1.151.502 2.118v6.88h2.251v-6.99c0-2.997-1.247-4.496-3.742-4.496-.834 0-1.58.192-2.237.576a3.785 3.785 0 0 0-1.505 1.58c-.532-1.44-1.668-2.163-3.41-2.163-.82 0-1.528.185-2.141.554-.613.369-1.078.9-1.402 1.58l-.2-1.868h-2.096c.118.937.177 1.985.177 3.159v8.06h2.23l-.008.022Z"/></g><defs><clipPath id="a"><path fill="#fff" transform="translate(0 .133)" d="M0 0h100v25.937H0z"/></clipPath></defs></svg>
